X: 1
T: House, The
M: 4/4
L: 1/8
R: reel
K: Dmaj
DFAF GFEG|FDFA dfef|geag fdd=c|AG~G2 EFGE|
DFAF GFEG|FDFA dfef|geag fddf|1eddc dBAF:|2eddc d3e||
f2af g2ag|fgaf geag|fd=cA BG~G2|ABcA dcde|
f2af g2ag|fgaf geag|fd=cA BG~G2|1ABcA dcde:|2ABcA dBAF||
